**harm	**harte	**timestamp	**phrase	**leadinstrument	**kern
*M6/8	*M6/8	*	*	*	*
*D:	*D:	*	*	*	*D:
1r;	N	0	.	r	1r;
=1	=1	=1	=1	=1	=1
*>A_intro	*>A_intro	*>A_intro	*>A_intro	*>A_intro	*>A_intro
2.I	D:5	0.232	newline	r	2D 2f# 2a
=2	=2	=2	=2	=2	=2
2.I	D:5	1.686	.	r	2D 2f# 2a
=3	=3	=3	=3	=3	=3
2.I	D:5	3.141	.	r	2D 2f# 2a
=4	=4	=4	=4	=4	=4
2.I	D:5	4.595	.	r	2D 2f# 2a
=5	=5	=5	=5	=5	=5
*M4/4	*M4/4	*M4/4	*M4/4	*M4/4	*M4/4
1r	N	6.049	.	r	1r
=6	=6	=6	=6	=6	=6
*M6/8	*M6/8	*M6/8	*M6/8	*M6/8	*M6/8
4.I	D:maj	7.988	newline	horn	4D 4f# 4a
4.vi7	B:min7	8.757	.	horn	4B 4dd 4ff# 4aa
=7	=7	=7	=7	=7	=7
4.Vb	A:maj/3	9.525	.	horn	4a 4C# 4ee
4.V	A:maj	10.294	.	horn	4A 4cc# 4ee
=8	=8	=8	=8	=8	=8
4.IV	G:maj	11.062	.	horn	4G 4b 4dd
4.Ib	D:maj/3	11.831	.	horn	4d 4F# 4a
=9	=9	=9	=9	=9	=9
4.ii7	E:min7	12.599	.	horn	4E 4g 4b 4dd
4.V	A:sus4(b7)	13.368	.	horn	4A 4cc# 4ee
=10	=10	=10	=10	=10	=10
2.V	A:sus4(b7)	14.136	.	horn	2A 2cc# 2ee
=11	=11	=11	=11	=11	=11
*>B_verse	*>B_verse	*>B_verse	*>B_verse	*>B_verse	*>B_verse
*M4/4	*M4/4	*M4/4	*M4/4	*M4/4	*M4/4
1I	D:maj(9)	15.673	newline	saxophone	1D 1f# 1a
=12	=12	=12	=12	=12	=12
1iii7	F#:min11	17.572	.	saxophone	1F# 1a 1cc# 1ee
=13	=13	=13	=13	=13	=13
1IV	G:maj6	19.471	.	saxophone	1G 1b 1dd
=14	=14	=14	=14	=14	=14
1I	D:maj(9)	21.37	.	saxophone	1D 1f# 1a
=15	=15	=15	=15	=15	=15
1IV	G:maj6	23.269	.	saxophone	1G 1b 1dd
=16	=16	=16	=16	=16	=16
1I	D:maj(9)	25.168	.	saxophone	1D 1f# 1a
=17	=17	=17	=17	=17	=17
1ii7	E:min7	27.067	.	saxophone	1E 1g 1b 1dd
=18	=18	=18	=18	=18	=18
2V	A:sus4(b7)	28.965	.	saxophone	2A 2cc# 2ee
2V7	A:7	29.915	.	saxophone	2A 2cc# 2ee 2gg
=19	=19	=19	=19	=19	=19
1I	D:maj(9)	30.864	newline	saxophone	1D 1f# 1a
=20	=20	=20	=20	=20	=20
1iii7	F#:min11	32.804	.	saxophone	1F# 1a 1cc# 1ee
=21	=21	=21	=21	=21	=21
1IV	G:maj6	34.744	.	saxophone	1G 1b 1dd
=22	=22	=22	=22	=22	=22
1I	D:maj	36.684	.	saxophone	1D 1f# 1a
=23	=23	=23	=23	=23	=23
1IV	G:maj(9)	38.624	.	saxophone	1G 1b 1dd
=24	=24	=24	=24	=24	=24
1I	D:maj	40.563	.	saxophone	1D 1f# 1a
=25	=25	=25	=25	=25	=25
1ii7	E:min7	42.503	.	saxophone	1E 1g 1b 1dd
=26	=26	=26	=26	=26	=26
1-VII7	C:maj13	44.443	newline	saxophone	1C 1e 1g 1b
=27	=27	=27	=27	=27	=27
1vi7	B:min9	46.347	.	saxophone	1B 1dd 1ff# 1aa
=28	=28	=28	=28	=28	=28
1V7	A:11	48.251	.	saxophone	1A 1cc# 1ee 1gg
=29	=29	=29	=29	=29	=29
1V7	A:11	50.155	.	saxophone	1A 1cc# 1ee 1gg
=30	=30	=30	=30	=30	=30
*>C_chorus	*>C_chorus	*>C_chorus	*>C_chorus	*>C_chorus	*>C_chorus
1I	D:maj	52.059	newline	saxophone	1D 1f# 1a
=31	=31	=31	=31	=31	=31
2V	A:maj	53.996	.	saxophone	2A 2cc# 2ee
2Ib	D:maj/3	54.964	.	saxophone	2d 2F# 2a
=32	=32	=32	=32	=32	=32
1IV7	G:maj13	55.933	.	saxophone	1G 1b 1dd 1ff#
=33	=33	=33	=33	=33	=33
1ii7	E:min7	57.87	.	saxophone	1E 1g 1b 1dd
=34	=34	=34	=34	=34	=34
1I	D:maj	59.807	.	saxophone	1D 1f# 1a
=35	=35	=35	=35	=35	=35
2V	A:maj	61.743	.	saxophone	2A 2cc# 2ee
2Ib	D:maj/3	62.712	.	saxophone	2d 2F# 2a
=36	=36	=36	=36	=36	=36
1IV7	G:maj13	63.68	.	saxophone	1G 1b 1dd 1ff#
=37	=37	=37	=37	=37	=37
1ii7	E:min7	65.617	.	saxophone	1E 1g 1b 1dd
=38	=38	=38	=38	=38	=38
1-VII7	C:maj13	67.554	newline	saxophone	1C 1e 1g 1b
=39	=39	=39	=39	=39	=39
1vi7	B:min7	69.478	.	saxophone	1B 1dd 1ff# 1aa
=40	=40	=40	=40	=40	=40
1V7	A:11	71.402	.	saxophone	1A 1cc# 1ee 1gg
=41	=41	=41	=41	=41	=41
1V	A:maj	73.326	.	saxophone	1A 1cc# 1ee
=42	=42	=42	=42	=42	=42
*>B_verse	*>B_verse	*>B_verse	*>B_verse	*>B_verse	*>B_verse
1I	D:maj(9)	75.25	newline	saxophone	1D 1f# 1a
=43	=43	=43	=43	=43	=43
1iii7	F#:min11	77.183	.	saxophone	1F# 1a 1cc# 1ee
=44	=44	=44	=44	=44	=44
1IV	G:maj6	79.116	.	saxophone	1G 1b 1dd
=45	=45	=45	=45	=45	=45
1I	D:maj(9)	81.049	.	saxophone	1D 1f# 1a
=46	=46	=46	=46	=46	=46
1IV	G:maj(9)	82.982	.	saxophone	1G 1b 1dd
=47	=47	=47	=47	=47	=47
1I	D:maj(9)	84.915	.	saxophone	1D 1f# 1a
=48	=48	=48	=48	=48	=48
1ii	E:min	86.848	.	saxophone	1E 1g 1b
=49	=49	=49	=49	=49	=49
2V	A:sus4(b7)	88.781	.	saxophone	2A 2cc# 2ee
2V7	A:7	89.747	.	saxophone	2A 2cc# 2ee 2gg
=50	=50	=50	=50	=50	=50
1I	D:maj(9)	90.714	newline	saxophone	1D 1f# 1a
=51	=51	=51	=51	=51	=51
1iii7	F#:min11	92.649	.	saxophone	1F# 1a 1cc# 1ee
=52	=52	=52	=52	=52	=52
1IV	G:maj6	94.584	.	saxophone	1G 1b 1dd
=53	=53	=53	=53	=53	=53
1I	D:maj	96.518	.	saxophone	1D 1f# 1a
=54	=54	=54	=54	=54	=54
1IV	G:maj(9)	98.453	.	saxophone	1G 1b 1dd
=55	=55	=55	=55	=55	=55
1I	D:maj	100.388	.	saxophone	1D 1f# 1a
=56	=56	=56	=56	=56	=56
1ii7	E:min7	102.323	.	saxophone	1E 1g 1b 1dd
=57	=57	=57	=57	=57	=57
1-VII7	C:maj13	104.258	newline	saxophone	1C 1e 1g 1b
=58	=58	=58	=58	=58	=58
1vi7	B:min9	106.195	.	saxophone	1B 1dd 1ff# 1aa
=59	=59	=59	=59	=59	=59
1V7	A:11	108.133	.	saxophone	1A 1cc# 1ee 1gg
=60	=60	=60	=60	=60	=60
1V7	A:7	110.071	.	saxophone	1A 1cc# 1ee 1gg
=61	=61	=61	=61	=61	=61
*>C_chorus	*>C_chorus	*>C_chorus	*>C_chorus	*>C_chorus	*>C_chorus
1I	D:maj	112.009	newline	saxophone	1D 1f# 1a
=62	=62	=62	=62	=62	=62
2V	A:maj	113.949	.	saxophone	2A 2cc# 2ee
2Ib	D:maj/3	114.919	.	saxophone	2d 2F# 2a
=63	=63	=63	=63	=63	=63
1IV7	G:maj13	115.89	.	saxophone	1G 1b 1dd 1ff#
=64	=64	=64	=64	=64	=64
1ii7	E:min7	117.83	.	saxophone	1E 1g 1b 1dd
=65	=65	=65	=65	=65	=65
1I	D:maj	119.771	.	saxophone	1D 1f# 1a
=66	=66	=66	=66	=66	=66
2V	A:maj	121.711	.	saxophone	2A 2cc# 2ee
2Ib	D:maj/3	122.682	.	saxophone	2d 2F# 2a
=67	=67	=67	=67	=67	=67
1IV7	G:maj13	123.652	.	saxophone	1G 1b 1dd 1ff#
=68	=68	=68	=68	=68	=68
1ii7	E:min7	125.592	.	saxophone	1E 1g 1b 1dd
=69	=69	=69	=69	=69	=69
1-VII7	C:maj13	127.533	newline	saxophone	1C 1e 1g 1b
=70	=70	=70	=70	=70	=70
1vi7	B:min7	129.462	.	saxophone	1B 1dd 1ff# 1aa
=71	=71	=71	=71	=71	=71
1V7	A:11	131.391	.	saxophone	1A 1cc# 1ee 1gg
=72	=72	=72	=72	=72	=72
1V	A:maj	133.319	.	saxophone	1A 1cc# 1ee
=73	=73	=73	=73	=73	=73
*>D_bridge	*>D_bridge	*>D_bridge	*>D_bridge	*>D_bridge	*>D_bridge
1IV	G:maj(9)	135.248	newline	saxophone	1G 1b 1dd
=74	=74	=74	=74	=74	=74
1vi7	B:min7	137.167	.	saxophone	1B 1dd 1ff# 1aa
=75	=75	=75	=75	=75	=75
1iii7	F#:min11	139.086	.	saxophone	1F# 1a 1cc# 1ee
=76	=76	=76	=76	=76	=76
1IV	G:maj(9)	141.004	.	saxophone	1G 1b 1dd
=77	=77	=77	=77	=77	=77
1-VII7	C:maj13	142.923	.	saxophone	1C 1e 1g 1b
=78	=78	=78	=78	=78	=78
1vi7	B:min11	144.842	.	saxophone	1B 1dd 1ff# 1aa
=79	=79	=79	=79	=79	=79
1V7	A:11	146.761	.	saxophone	1A 1cc# 1ee 1gg
=80	=80	=80	=80	=80	=80
1V	A:maj	148.679	.	saxophone	1A 1cc# 1ee
=81	=81	=81	=81	=81	=81
*>B2_verse	*>B2_verse	*>B2_verse	*>B2_verse	*>B2_verse	*>B2_verse
1I	D:maj(9)	150.598	newline	saxophone	1D 1f# 1a
=82	=82	=82	=82	=82	=82
1iii7	F#:min11	152.527	.	saxophone	1F# 1a 1cc# 1ee
=83	=83	=83	=83	=83	=83
1IV	G:maj6	154.457	.	saxophone	1G 1b 1dd
=84	=84	=84	=84	=84	=84
1I	D:maj(9)	156.386	.	saxophone	1D 1f# 1a
=85	=85	=85	=85	=85	=85
1IV	G:maj(9)	158.315	.	saxophone	1G 1b 1dd
=86	=86	=86	=86	=86	=86
1I	D:maj	160.245	.	saxophone	1D 1f# 1a
=87	=87	=87	=87	=87	=87
1ii	E:min	162.174	.	saxophone	1E 1g 1b
=88	=88	=88	=88	=88	=88
2V	A:sus4(b7)	164.103	.	saxophone	2A 2cc# 2ee
2V7	A:7	165.068	.	saxophone	2A 2cc# 2ee 2gg
=89	=89	=89	=89	=89	=89
1I	D:maj(9)	166.032	newline	saxophone	1D 1f# 1a
=90	=90	=90	=90	=90	=90
1iii7	F#:min11	167.959	.	saxophone	1F# 1a 1cc# 1ee
=91	=91	=91	=91	=91	=91
1IV	G:maj6	169.886	.	saxophone	1G 1b 1dd
=92	=92	=92	=92	=92	=92
1I	D:maj(9)	171.813	.	saxophone	1D 1f# 1a
=93	=93	=93	=93	=93	=93
1IV	G:maj(9)	173.739	.	saxophone	1G 1b 1dd
=94	=94	=94	=94	=94	=94
1I	D:maj	175.666	.	saxophone	1D 1f# 1a
=95	=95	=95	=95	=95	=95
1ii	E:min	177.593	.	saxophone	1E 1g 1b
=96	=96	=96	=96	=96	=96
2V	A:sus4(b7)	179.52	.	saxophone	2A 2cc# 2ee
2V7	A:7	180.483	.	saxophone	2A 2cc# 2ee 2gg
=97	=97	=97	=97	=97	=97
*>B_verse	*>B_verse	*>B_verse	*>B_verse	*>B_verse	*>B_verse
1I	D:maj(9)	181.446	newline	saxophone	1D 1f# 1a
=98	=98	=98	=98	=98	=98
1iii7	F#:min11	183.362	.	saxophone	1F# 1a 1cc# 1ee
=99	=99	=99	=99	=99	=99
1IV	G:maj6	185.277	.	saxophone	1G 1b 1dd
=100	=100	=100	=100	=100	=100
1I	D:maj(9)	187.193	.	saxophone	1D 1f# 1a
=101	=101	=101	=101	=101	=101
1IV	G:maj(9)	189.109	.	saxophone	1G 1b 1dd
=102	=102	=102	=102	=102	=102
1I	D:maj(9)	191.024	.	saxophone	1D 1f# 1a
=103	=103	=103	=103	=103	=103
1ii	E:min	192.94	.	saxophone	1E 1g 1b
=104	=104	=104	=104	=104	=104
2V	A:sus4(b7)	194.855	.	saxophone	2A 2cc# 2ee
2V7	A:7	195.813	.	saxophone	2A 2cc# 2ee 2gg
=105	=105	=105	=105	=105	=105
1I	D:maj	196.771	newline	saxophone	1D 1f# 1a
=106	=106	=106	=106	=106	=106
2V	A:maj	198.694	.	saxophone	2A 2cc# 2ee
2Ib	D:maj/3	199.656	.	saxophone	2d 2F# 2a
=107	=107	=107	=107	=107	=107
1IV7	G:maj13	200.617	.	saxophone	1G 1b 1dd 1ff#
=108	=108	=108	=108	=108	=108
1ii7	E:min7	202.541	.	saxophone	1E 1g 1b 1dd
=109	=109	=109	=109	=109	=109
1I	D:maj	204.464	.	saxophone	1D 1f# 1a
=110	=110	=110	=110	=110	=110
2V	A:maj	206.387	.	saxophone	2A 2cc# 2ee
2Ib	D:maj/3	207.349	.	saxophone	2d 2F# 2a
=111	=111	=111	=111	=111	=111
1IV7	G:maj13	208.311	.	saxophone	1G 1b 1dd 1ff#
=112	=112	=112	=112	=112	=112
1ii7	E:min7	210.234	.	saxophone	1E 1g 1b 1dd
=113	=113	=113	=113	=113	=113
1-VII7	C:maj13	212.157	newline	saxophone	1C 1e 1g 1b
=114	=114	=114	=114	=114	=114
1vi7	B:min7	214.065	.	saxophone	1B 1dd 1ff# 1aa
=115	=115	=115	=115	=115	=115
1V7	A:11	215.972	.	saxophone	1A 1cc# 1ee 1gg
=116	=116	=116	=116	=116	=116
1V	A:maj	217.88	.	saxophone	1A 1cc# 1ee
=117	=117	=117	=117	=117	=117
*>B_verse	*>B_verse	*>B_verse	*>B_verse	*>B_verse	*>B_verse
1I	D:maj	219.787	newline	saxophone	1D 1f# 1a
=118	=118	=118	=118	=118	=118
2V	A:maj	221.709	.	saxophone	2A 2cc# 2ee
2Ib	D:maj/3	222.67	.	saxophone	2d 2F# 2a
=119	=119	=119	=119	=119	=119
1IV7	G:maj13	223.631	.	saxophone	1G 1b 1dd 1ff#
=120	=120	=120	=120	=120	=120
1ii7	E:min7	225.552	.	saxophone	1E 1g 1b 1dd
=121	=121	=121	=121	=121	=121
1I	D:maj	227.474	.	saxophone	1D 1f# 1a
=122	=122	=122	=122	=122	=122
2V	A:maj	229.396	.	saxophone	2A 2cc# 2ee
2Ib	D:maj/3	230.357	.	saxophone	2d 2F# 2a
=123	=123	=123	=123	=123	=123
1IV7	G:maj13	231.318	.	saxophone	1G 1b 1dd 1ff#
=124	=124	=124	=124	=124	=124
1ii7	E:min7	233.24	.	saxophone	1E 1g 1b 1dd
=125	=125	=125	=125	=125	=125
*>_fadeout	*>_fadeout	*>_fadeout	*>_fadeout	*>_fadeout	*>_fadeout
1-VII7	C:maj13	235.162	newline	saxophone	1C 1e 1g 1b
=126	=126	=126	=126	=126	=126
1vi7	B:min7	237.071	.	saxophone	1B 1dd 1ff# 1aa
=127	=127	=127	=127	=127	=127
1V7	A:11	238.98	.	saxophone	1A 1cc# 1ee 1gg
=128	=128	=128	=128	=128	=128
1V	A:maj	240.889	.	saxophone	1A 1cc# 1ee
=129	=129	=129	=129	=129	=129
*>B_verse	*>B_verse	*>B_verse	*>B_verse	*>B_verse	*>B_verse
1I	D:maj	242.799	newline	saxophone	1D 1f# 1a
=130	=130	=130	=130	=130	=130
2V	A:maj	244.7	.	saxophone	2A 2cc# 2ee
2Ib	D:maj/3	245.651	.	saxophone	2d 2F# 2a
=131	=131	=131	=131	=131	=131
1IV7	G:maj13	246.602	.	saxophone	1G 1b 1dd 1ff#
=132	=132	=132	=132	=132	=132
1ii7	E:min7	248.504	.	saxophone	1E 1g 1b 1dd
=133	=133	=133	=133	=133	=133
1I	D:maj	250.406	.	saxophone	1D 1f# 1a
=134	=134	=134	=134	=134	=134
2V	A:maj	252.308	.	saxophone	2A 2cc# 2ee
2Ib	D:maj/3	253.259	.	saxophone	2d 2F# 2a
=135	=135	=135	=135	=135	=135
1IV7	G:maj13	254.209	.	saxophone	1G 1b 1dd 1ff#
=136	=136	=136	=136	=136	=136
1ii7	E:min7	256.111	.	saxophone	1E 1g 1b 1dd
=137	=137	=137	=137	=137	=137
1-VII7	C:maj13	258.013	newline	saxophone	1C 1e 1g 1b
=138	=138	=138	=138	=138	=138
1vi7	B:min7	259.687	.	saxophone	1B 1dd 1ff# 1aa
=139	=139	=139	=139	=139	=139
1V7	A:11	261.36	.	saxophone	1A 1cc# 1ee 1gg
=140	=140	=140	=140	=140	=140
1V	A:maj	263.034	.	saxophone	1A 1cc# 1ee
1r;	N	264.707	.	r	1r;
1r;	N	267.964	.	r	1r;
*-	*-	*-	*-	*-	*-
!!!OTL: The Arms Of Orion
!!!COC: Prince (With Sheena Easton)
!!!BillboardChartDate: 1989/12/16
!!!BillboardPeak: 36
!!!BillboardWeeksOnChart: 14
!!!SampleTargetRank: 35
!!!SampleActualRank: 36
!!!SampleID#: 1019
!!!RDF**harmony: **recip + pitch class of root + harmonic quality
!!!RDF**harte: Chris Harte's syntax, used by MIREX
!!!RDF**phrase: newline = linebreak in original McGill transcription
!!!RDF**timestamp: McGill audio timestamp in seconds
!!!RDF**leadinstrument: original McGill primary instrumentation annotation
!!!RDT: 2017/01/12/
!!!ENC: Nathaniel Condit-Schultz
!!!EST: Awating manual error checking and editing.
